svg/logo/github_line.svg

<?xml version="1.0" encoding="UTF-8"?>
<svg width="24px" height="24px" viewBox="0 0 24 24" version="1.1" xmlns="http://www.w3.org/2000/svg" xmlns:xlink="http://www.w3.org/1999/xlink">
    <title>github_line</title>
    <g id="页面-1" stroke="none" stroke-width="1" fill="none" fill-rule="evenodd">
        <g id="Logo" transform="translate(-144.000000, -96.000000)" fill-rule="nonzero">
            <g id="github_line" transform="translate(144.000000, 96.000000)">
                 <path d="M24,0 L24,24 L0,24 L0,0 L24,0 Z M12.5934901,23.257841 L12.5819402,23.2595131 L12.5108777,23.2950439 L12.4918791,23.2987469 L12.4918791,23.2987469 L12.4767152,23.2950439 L12.4056548,23.2595131 C12.3958229,23.2563662 12.3870493,23.2590235 12.3821421,23.2649074 L12.3780323,23.275831 L12.360941,23.7031097 L12.3658947,23.7234994 L12.3769048,23.7357139 L12.4804777,23.8096931 L12.4953491,23.8136134 L12.4953491,23.8136134 L12.5071152,23.8096931 L12.6106902,23.7357139 L12.6232938,23.7196733 L12.6232938,23.7196733 L12.6266527,23.7031097 L12.609561,23.275831 C12.6075724,23.2657013 12.6010112,23.2592993 12.5934901,23.257841 L12.5934901,23.257841 Z M12.8583906,23.1452862 L12.8445485,23.1473072 L12.6598443,23.2396597 L12.6498822,23.2499052 L12.6498822,23.2499052 L12.6471943,23.2611114 L12.6650943,23.6906389 L12.6699349,23.7034178 L12.6699349,23.7034178 L12.678386,23.7104931 L12.8793402,23.8032389 C12.8914285,23.8068999 12.9022333,23.8029875 12.9078286,23.7952264 L12.9118235,23.7811639 L12.8776777,23.1665331 C12.8752882,23.1545897 12.8674102,23.1470016 12.8583906,23.1452862 L12.8583906,23.1452862 Z M12.1430473,23.1473072 C12.1332178,23.1423925 12.1221763,23.1452606 12.1156365,23.1525954 L12.1099173,23.1665331 L12.0757714,23.7811639 C12.0751323,23.7926639 12.0828099,23.8018602 12.0926481,23.8045676 L12.108256,23.8032389 L12.3092106,23.7104931 L12.3186497,23.7024347 L12.3186497,23.7024347 L12.3225043,23.6906389 L12.340401,23.2611114 L12.337245,23.2485176 L12.337245,23.2485176 L12.3277531,23.2396597 L12.1430473,23.1473072 Z" id="MingCute" fill-rule="nonzero"></path>
                <path d="M6.31507,6.17592 C6.06528,5.53804 6.07509,4.80911 6.18645,4.14164 C6.94443,4.3743 7.67583,4.73056 8.30658,5.21261 C8.58532,5.42563 8.95261,5.49547 9.29491,5.39175 C10.1245,5.14037 11.0377,5.00008 12,5.00008 C12.9614,5.00008 13.8737,5.1401 14.7027,5.39103 C15.0449,5.4946 15.4119,5.42479 15.6906,5.21193 C16.3211,4.73024 17.0522,4.37419 17.8098,4.14164 C17.9211,4.80847 17.9309,5.53652 17.682,6.17398 C17.532,6.55795 17.6072,7.00009 17.8898,7.31369 C18.6138,8.11696 19,9.04077 19,10.0001 C19,12.1142 17.0306,14.187 13.8662,14.8182 C13.0738,14.9763 12.7646,15.9726 13.3711,16.544 C13.7596,16.91 14,17.4261 14,18.0001 L14,21.0001 C14,21.5523 14.4477,22.0001 15,22.0001 C15.5523,22.0001 16,21.5523 16,21.0001 L16,18.0001 C16,17.4303 15.8805,16.888 15.6657,16.3972 C18.6831,15.3498 21,12.9925 21,10.0001 C21,8.65251 20.5156,7.41484 19.7128,6.37804 C19.9226,5.55843 19.904,4.73178 19.8242,4.09759 C19.7528,3.53005 19.6535,2.78566 19.2532,2.34211 C18.6586,1.68341 17.6732,2.07099 16.9732,2.31048 C16.3548,2.52075 15.5898,2.85589 14.8487,3.35549 C13.9512,3.12436 12.993,3.00008 12,3.00008 C11.006,3.00008 10.0468,3.12461 9.14859,3.35618 C8.4074,2.85633 7.64217,2.52103 7.02354,2.31066 C6.32363,2.07114 5.33755,1.68338 4.74302,2.34223 C4.33543,2.7939 4.24955,3.47917 4.17668,4.06064 L4.17186,4.09904 C4.09212,4.73386 4.07374,5.56141 4.28443,6.38166 C3.48323,7.41773 3,8.6541 3,10.0001 C3,12.9925 5.3169,15.3498 8.33434,16.3972 C8.12194,16.8823 8.00278,17.4177 8.00005,17.9803 L7.8323,18.0138 C7.11546,18.1126 6.65626,18.0246 6.3437,17.892 C5.58364,17.5696 5.19225,16.7586 4.71319,16.1387 C4.41554,15.7535 3.98203,15.2733 3.31625,15.0514 C2.79231,14.8768 2.22599,15.1599 2.05134,15.6839 C1.8767,16.2078 2.15986,16.7741 2.6838,16.9488 C3.24249,17.135 3.62811,18.0909 3.98181,18.5153 C4.35469,18.9628 4.85081,19.4312 5.5626,19.7332 C6.24412,20.0223 7.0447,20.1258 8,20.0088 L8,21.0001 C8,21.5523 8.44772,22.0001 9,22.0001 C9.55228,22.0001 10,21.5523 10,21.0001 L10,18.0001 C10,17.4261 10.2404,16.91 10.6289,16.544 C11.2355,15.9725 10.926,14.9763 10.1338,14.8182 C6.96942,14.187 5,12.1142 5,10.0001 C5,9.0417 5.38549,8.11879 6.10804,7.31608 C6.39058,7.0022 6.46541,6.55985 6.31507,6.17592 Z" id="路径" fill="#09244B"></path>
            </g>
        </g>
    </g>
</svg>

<svg xmlns="http://www.w3.org/2000/svg" width="24" height="24"><g fill="none" fill-rule="nonzero"><path d="M24 0v24H0V0h24ZM12.593 23.258l-.011.002-.071.035-.02.004-.014-.004-.071-.035c-.01-.004-.019-.001-.024.005l-.004.01-.017.428.005.02.01.013.104.074.015.004.012-.004.104-.074.012-.016.004-.017-.017-.427c-.002-.01-.009-.017-.017-.018Zm.265-.113-.013.002-.185.093-.01.01-.003.011.018.43.005.012.008.007.201.093c.012.004.023 0 .029-.008l.004-.014-.034-.614c-.003-.012-.01-.02-.02-.022Zm-.715.002a.023.023 0 0 0-.027.006l-.006.014-.034.614c0 .012.007.02.017.024l.015-.002.201-.093.01-.008.004-.011.017-.43-.003-.012-.01-.01-.184-.092Z"/><path fill="#09244B" d="M6.315 6.176c-.25-.638-.24-1.367-.129-2.034a6.77 6.77 0 0 1 2.12 1.07c.28.214.647.283.989.18A9.343 9.343 0 0 1 12 5c.961 0 1.874.14 2.703.391.342.104.709.034.988-.18a6.77 6.77 0 0 1 2.119-1.07c.111.667.12 1.396-.128 2.033-.15.384-.075.826.208 1.14C18.614 8.117 19 9.04 19 10c0 2.114-1.97 4.187-5.134 4.818-.792.158-1.101 1.155-.495 1.726.389.366.629.882.629 1.456v3a1 1 0 0 0 2 0v-3c0-.57-.12-1.112-.334-1.603C18.683 15.35 21 12.993 21 10c0-1.347-.484-2.585-1.287-3.622.21-.82.191-1.646.111-2.28-.071-.568-.17-1.312-.57-1.756-.595-.659-1.58-.271-2.28-.032a9.081 9.081 0 0 0-2.125 1.045A11.432 11.432 0 0 0 12 3c-.994 0-1.953.125-2.851.356a9.08 9.08 0 0 0-2.125-1.045c-.7-.24-1.686-.628-2.281.031-.408.452-.493 1.137-.566 1.719l-.005.038c-.08.635-.098 1.462.112 2.283C3.484 7.418 3 8.654 3 10c0 2.992 2.317 5.35 5.334 6.397A3.986 3.986 0 0 0 8 17.98l-.168.034c-.717.099-1.176.01-1.488-.122-.76-.322-1.152-1.133-1.63-1.753-.298-.385-.732-.866-1.398-1.088a1 1 0 0 0-.632 1.898c.558.186.944 1.142 1.298 1.566.373.448.869.916 1.58 1.218.682.29 1.483.393 2.438.276V21a1 1 0 0 0 2 0v-3c0-.574.24-1.09.629-1.456.607-.572.297-1.568-.495-1.726C6.969 14.187 5 12.114 5 10c0-.958.385-1.881 1.108-2.684.283-.314.357-.756.207-1.14Z"/></g></svg>
